Papirus/64x64/apps/google-chrome-beta.svg

<svg xmlns="http://www.w3.org/2000/svg" width="64" height="64" version="1">
 <circle style="opacity:.2" cx="32" cy="33" r="28"/>
 <path style="opacity:.1" d="m31.988333 59.969839c-15.503815 0-27.985666-12.481451-27.985666-27.985667 0-0.234677-0.006-0.466373 0-0.699631 0.3700156 15.176819 12.716048 27.285675 27.985666 27.285675 15.269019 0 27.615672-12.108656 27.985667-27.285675 0.006 0.233257 0 0.464954 0 0.699631 0 15.503816-12.481451 27.985667-27.985667 27.985667z"/>
 <path style="fill:#109f5b" d="m 8.6998295,16.504263 c -0.4817493,0.731944 -0.927343,1.516337 -1.37889,2.292941 -2.176126,4.060803 -3.3165937,8.59584 -3.3202729,13.202968 0,1.300047 0.088602,2.579401 0.2600956,3.832351 C 6.129154,49.483153 18.406575,44.015599 32.570317,44.0156 32.713582,44.0115 32.856814,44.0063 33,44 l 12.68767,-6.062398 c -1.062027,1.729879 -5.486734,3.944909 -7.374912,5.035096 -6.041928,3.488358 -13.714563,1.233551 -17.202919,-4.808537 z"/>
 <path style="fill:#ffce41" d="m 32.031583,18.000339 c -0.03094,0 4.443979,1.995873 6.331957,3.085901 4.824814,2.785647 5.328398,12.734559 5.339778,16.76152 l 0.808584,0.468744 -0.824208,1.425765 c -6.4e-5,0.0014 0,0.0664 0,0.0664 l -0.312496,0.472656 -11.234521,5.132745 c 0.07422,0.0019 0.148519,0.0082 0.222654,0.0078 0.386969,-0.0063 0.773766,-0.02062 1.160142,-0.04296 0.224261,-0.0104 0.448167,-0.0116 0.671868,-0.02734 0.882161,-0.06512 1.76074,-0.172013 2.632781,-0.32031 C 36.885602,45.02166 36.94258,45.00996 37,45 48.831601,42.914994 57.689392,48.155459 59.6163,36.63007 59.868657,35.120651 59.99973,33.573571 60,32.000173 59.987334,27.081414 58.679131,22.252785 56.207077,18.000339 Z"/>
 <path style="fill:#dd4d3e" d="m31.988615 4.0005059a27.999667 27.999667 0 0 0 -0.48437 0.01562 27.999667 27.999667 0 0 0 -1.484356 0.054687 27.999667 27.999667 0 0 0 -0.08204 0.01172 27.999667 27.999667 0 0 0 -2.53122 0.304684c-0.0857 0.01408-0.172278 0.024532-0.257809 0.039061-0.0052 0.000894-0.0104 0.00298-0.0156 0.0039a27.999667 27.999667 0 0 0 -2.62108 0.5898471 27.999667 27.999667 0 0 0 -5.210874 2.0273197 27.999667 27.999667 0 0 0 -0.621087 0.3554645 27.999667 27.999667 0 0 0 -10.913932 10.617061l11.378771 19.710702 0.238278 0.476558 0.05859 0.03516 0.53515 0.929677 4.910097 3.945265 1.363266-0.582025 1.562481 0.984364c-0.184895-0.340768-0.370224-0.849022-0.550772-1.417957l9.183484-3.925732-9.503792-16.464649c0.869413-2.005689 2.389615-3.412261 5.058533-3.710894h24.206744a27.999667 27.999667 0 0 0 -1.519514 -2.351534 27.999667 27.999667 0 0 0 -1.710917 -2.1406 27.999667 27.999667 0 0 0 -0.07422 -0.08594 27.999667 27.999667 0 0 0 -1.816382 -1.863255 27.999667 27.999667 0 0 0 -0.191404 -0.175779 27.999667 27.999667 0 0 0 -1.917947 -1.60545 27.999667 27.999667 0 0 0 -0.269526 -0.2031226 27.999667 27.999667 0 0 0 -1.980447 -1.3476404 27.999667 27.999667 0 0 0 -0.382807 -0.234372 27.999667 27.999667 0 0 0 -1.992165 -1.0859247 27.999667 27.999667 0 0 0 -0.566399 -0.269528 27.999667 27.999667 0 0 0 -1.914039 -0.8007716 27.999667 27.999667 0 0 0 -0.738273 -0.2734344 27.999667 27.999667 0 0 0 -1.843728 -0.5624933 27.999667 27.999667 0 0 0 -0.925769 -0.2382784 27.999667 27.999667 0 0 0 -1.722638 -0.3437459 27.999667 27.999667 0 0 0 -1.097643 -0.1640606 27.999667 27.999667 0 0 0 -1.570293 -0.1562482 27.999667 27.999667 0 0 0 -1.972633 -0.097655 27.999667 27.999667 0 0 0 -0.0118 0z"/>
 <path style="opacity:.2;fill:#ffffff" d="m32 4.0001605a27.999667 27.999667 0 0 0 -28 28 27.999667 27.999667 0 0 0 0.0175782 0.492188 27.999667 27.999667 0 0 1 27.982422 -27.492188 27.999667 27.999667 0 0 1 27.972656 27.5 27.999667 27.999667 0 0 0 0.02539 -0.5 27.999667 27.999667 0 0 0 -27.998046 -28z"/>
 <rect style="opacity:.2" width="28" height="28" x="-47" y="-46" rx="14" ry="14" transform="matrix(0,-1,-1,0,0,0)"/>
 <rect style="fill:#ffffff" width="28" height="28" x="-46" y="-46" rx="14" ry="14" transform="matrix(0,-1,-1,0,0,0)"/>
 <rect style="fill:#4587f3" width="22" height="22" x="-43" y="-43" rx="11" ry="11" transform="matrix(0,-1,-1,0,0,0)"/>
 <path style="fill:#4f4f4f" d="M 4.3164062 36 A 28 28 0 0 0 26.4375 59.441406 A 28 28 0 0 0 28.896484 59.8125 C 29.019666 59.830468 29.142607 59.851177 29.267578 59.863281 A 28 28 0 0 0 29.273438 59.863281 A 28.32401 27.999812 0 0 0 31.904297 59.996094 C 31.937497 59.996242 31.970666 59.9998 32.003906 60 A 28 28 0 0 0 32.011719 60 A 28 28 0 0 0 33.517578 59.945312 C 33.755514 59.930913 33.993493 59.91718 34.230469 59.898438 A 28 28 0 0 0 36.345703 59.642578 C 36.509849 59.622128 36.67322 59.599206 36.835938 59.574219 A 28 28 0 0 0 59.677734 36 L 4.3164062 36 z"/>
 <path style="opacity:0.2" d="m 18,40.999301 v 1.036 3.997203 1.032429 4.998368 0.936 h 5.337891 C 24.815762,52.999301 26,51.044337 26,49.567301 26,48.645289 25.536022,47.370172 24.828125,46.696567 25.536022,46.022961 26,44.953313 26,44.031301 c 0,-1.477036 -1.184239,-3.032 -2.662109,-3.032 h -4.00586 z m 1.332031,1.036 h 4.00586 c 0.762006,-10e-7 1.330079,1.234424 1.330078,1.996 0,0.761576 -0.569024,1.963193 -1.330078,2.001203 h -4.00586 z m 16.597657,0.964 c 0,0.863852 0.01132,1.28968 0.01172,2 h -1.34375 v 1.032002 h 1.351563 c 0.0148,2.309326 0.06478,4.353096 0.339843,5.315654 0.198901,0.696076 0.633817,1.238688 1.195313,1.457032 0.561417,0.218341 1.114664,0.195312 1.781248,0.195312 v -1.335938 c -0.666584,0 -1.112375,-0.0244 -1.300781,-0.09766 -0.18842,-0.07326 -0.256227,-0.115579 -0.390625,-0.585937 -0.18566,-0.649726 -0.247464,-2.648559 -0.277344,-4.948467 h 1.300781 v -1.031998 h -1.3125 c -0.004,-0.713538 -0.01953,-1.134054 -0.01953,-2 z m -5.306641,2 c -0.723629,0 -1.361745,0.158139 -1.912109,0.484375 -0.540173,0.326231 -0.961823,0.790045 -1.267579,1.394531 C 27.147789,47.482696 27,48.611963 27,49.456332 c 0,0.863555 0.162145,1.188136 0.488281,1.773438 0.336336,0.585297 0.799492,1.026771 1.390625,1.324219 0.591132,0.297447 1.279671,0.445312 2.064453,0.445312 0.560559,0 1.045446,-0.04255 1.453125,-0.128906 0.407677,-0.07676 0.82041,-0.202298 1.238282,-0.375 v -1.00936 c -0.428064,0.172704 -0.84818,0.310304 -1.25586,0.40625 -0.397485,0.08636 -0.855208,0.128906 -1.375,0.128906 -0.815355,0 -1.453472,-0.224813 -1.912109,-0.675781 -0.448452,-0.460565 -0.680796,-1.484675 -0.701172,-2.357828 h 0.0078 v 0.02344 H 34 v -0.132813 c 0,-0.700442 -0.134965,-1.712335 -0.410156,-2.230468 -0.264983,-0.527717 -0.652511,-0.930899 -1.16211,-1.21875 -0.509598,-0.287854 -1.111633,-0.429688 -1.804687,-0.42969 z m 12.4375,0 c -0.560558,0 -1.049356,0.04257 -1.457031,0.128906 -0.407676,0.07678 -0.820409,0.198396 -1.238282,0.371094 v 1.109375 c 0.428064,-0.172704 0.84818,-0.310305 1.25586,-0.40625 C 42.018579,46.116066 42.48021,46.07352 43,46.07352 c 0.815356,0 1.449564,0.224813 1.908203,0.675781 0.213301,0.219061 0.376318,0.850523 0.492188,1.226562 l -0.875,0.02734 c -1.537753,0.0428 -2.674531,0.298795 -3.414063,0.769532 C 40.3718,49.232779 40,49.590683 40,50.446567 c 0,0.877276 0.286161,1.526118 0.849609,1.943359 0.563452,0.406547 1.27199,0.609375 2.128907,0.609375 0.786482,0 1.405477,-0.11515 1.863281,-0.339844 0.261674,-0.128403 0.512964,-0.306407 0.759765,-0.515625 v 0.144531 0.710938 H 47 V 49.296176 H 46.9961 C 46.99626,49.275766 47,49.258152 47,49.237582 47,48.374025 46.837832,47.350228 46.511719,46.764926 46.175383,46.179624 45.712225,45.738153 45.121094,45.440707 44.529958,45.143259 43.845325,44.999301 43.060547,44.999301 Z m -12.453125,1.03125 c 0.68286,0 1.185999,0.204601 1.501953,0.617188 0.214193,0.273201 0.326724,1.024261 0.400391,1.412109 h -3.955078 c 0.112456,-0.410848 0.272295,-1.174704 0.52539,-1.439453 0.377104,-0.393398 0.88525,-0.589844 1.527344,-0.589844 z m -11.275391,1.034382 h 4.00586 c 0.762006,0 1.330079,1.740792 1.330078,2.502368 0,0.761576 -0.568074,2.496002 -1.330078,2.496 h -4.00586 z m 26.248047,1.887493 c 0.0105,0.115977 0.0222,0.22853 0.02539,0.34375 h -0.0039 v 0.02344 1.750396 c -0.09017,0.105491 -0.186311,0.208744 -0.300781,0.294922 -0.528234,0.395849 -1.186172,0.597656 -1.972656,0.597656 -0.504756,0 -0.923273,-0.115171 -1.251953,-0.339843 -0.316941,-0.224672 -0.472655,-0.675209 -0.472656,-1.156646 0,-0.545627 0.219952,-0.669191 0.666015,-0.96875 0.457801,-0.299562 1.275363,-0.474785 2.449219,-0.517578 z"/>
 <path style="fill:#ffffff" d="m 18,40 v 1.036 3.997203 1.032429 V 51.064 52 h 5.337891 C 24.815762,52 26,50.045036 26,48.568 26,47.645988 25.536022,46.370871 24.828125,45.697266 25.536022,45.02366 26,43.954012 26,43.032 26,41.554964 24.815761,40 23.337891,40 h -4.00586 z m 1.332031,1.036 h 4.00586 c 0.762006,-1e-6 1.330079,1.234424 1.330078,1.996 0,0.761576 -0.569024,1.963193 -1.330078,2.001203 h -4.00586 z M 35.929688,42 c 0,0.863852 0.01132,1.28968 0.01172,2 h -1.34375 v 1.032002 h 1.351563 c 0.0148,2.309326 0.06478,4.353096 0.339843,5.315654 0.198901,0.696076 0.633817,1.238688 1.195313,1.457032 C 38.045794,52.023029 38.599041,52 39.265625,52 v -1.335938 c -0.666584,0 -1.112375,-0.0244 -1.300781,-0.09766 -0.18842,-0.07326 -0.256227,-0.115579 -0.390625,-0.585937 -0.18566,-0.649726 -0.247464,-2.648559 -0.277344,-4.948467 h 1.300781 V 44 h -1.3125 c -0.004,-0.713538 -0.01953,-1.134054 -0.01953,-2 z m -5.306641,2 c -0.723629,0 -1.361745,0.158139 -1.912109,0.484375 -0.540173,0.326231 -0.961823,0.790045 -1.267579,1.394531 C 27.147789,46.483395 27,47.612662 27,48.457031 c 0,0.863555 0.162145,1.188136 0.488281,1.773438 0.336336,0.585297 0.799492,1.026771 1.390625,1.324219 C 29.470038,51.852135 30.158577,52 30.943359,52 c 0.560559,0 1.045446,-0.04255 1.453125,-0.128906 0.407677,-0.07676 0.82041,-0.202298 1.238282,-0.375 v -1.00936 c -0.428064,0.172704 -0.84818,0.310304 -1.25586,0.40625 -0.397485,0.08636 -0.855208,0.128906 -1.375,0.128906 -0.815355,0 -1.453472,-0.224813 -1.912109,-0.675781 -0.448452,-0.460565 -0.680796,-1.484675 -0.701172,-2.357828 h 0.0078 v 0.02344 H 34 V 47.878908 C 34,47.178466 33.865035,46.166573 33.589844,45.64844 33.324861,45.120723 32.937333,44.717541 32.427734,44.42969 31.918136,44.141836 31.316101,44.000002 30.623047,44 Z m 12.4375,0 c -0.560558,0 -1.049356,0.04257 -1.457031,0.128906 -0.407676,0.07678 -0.820409,0.198396 -1.238282,0.371094 v 1.109375 c 0.428064,-0.172704 0.84818,-0.310305 1.25586,-0.40625 0.397485,-0.08636 0.859116,-0.128906 1.378906,-0.128906 0.815356,0 1.449564,0.224813 1.908203,0.675781 0.213301,0.219061 0.376318,0.850523 0.492188,1.226562 l -0.875,0.02734 c -1.537753,0.0428 -2.674531,0.298795 -3.414063,0.769532 C 40.3718,48.233478 40,48.591382 40,49.447266 c 0,0.877276 0.286161,1.526118 0.849609,1.943359 C 41.413061,51.797172 42.121599,52 42.978516,52 c 0.786482,0 1.405477,-0.11515 1.863281,-0.339844 0.261674,-0.128403 0.512964,-0.306407 0.759765,-0.515625 V 51.289062 52 H 47 V 48.296875 H 46.9961 C 46.99626,48.276465 47,48.258851 47,48.238281 47,47.374724 46.837832,46.350927 46.511719,45.765625 46.175383,45.180323 45.712225,44.738852 45.121094,44.441406 44.529958,44.143958 43.845325,44 43.060547,44 Z m -12.453125,1.03125 c 0.68286,0 1.185999,0.204601 1.501953,0.617188 0.214193,0.273201 0.326724,1.024261 0.400391,1.412109 h -3.955078 c 0.112456,-0.410848 0.272295,-1.174704 0.52539,-1.439453 0.377104,-0.393398 0.88525,-0.589844 1.527344,-0.589844 z m -11.275391,1.034382 h 4.00586 c 0.762006,0 1.330079,1.740792 1.330078,2.502368 0,0.761576 -0.568074,2.496002 -1.330078,2.496 h -4.00586 z m 26.248047,1.887493 c 0.0105,0.115977 0.0222,0.22853 0.02539,0.34375 h -0.0039 v 0.02344 1.750396 c -0.09017,0.105491 -0.186311,0.208744 -0.300781,0.294922 -0.528234,0.395849 -1.186172,0.597656 -1.972656,0.597656 -0.504756,0 -0.923273,-0.115171 -1.251953,-0.339843 -0.316941,-0.224672 -0.472655,-0.675209 -0.472656,-1.156646 0,-0.545627 0.219952,-0.669191 0.666015,-0.96875 0.457801,-0.299562 1.275363,-0.474785 2.449219,-0.517578 z"/>
</svg>

<svg xmlns="http://www.w3.org/2000/svg" width="64" height="64" version="1">
 <circle style="opacity:0.2" cx="32" cy="33" r="28"/>
 <path style="fill:#109f5b" d="M 8.7,16.504 C 8.218,17.236 7.773,18.02 7.321,18.797 5.145,22.858 4.0046,27.393 4.001,32 4.001,47.464 16.536,58 32,58 L 45.689,37.937 C 44.627,39.667 40.202,41.882 38.314,42.972 32.272,46.46 24.599,44.206 21.111,38.163 L 8.701,16.503 Z"/>
 <path style="fill:#dd4d3e" d="M 19.145,37.731 7.766,18.02 C 11.864,10.926 18.414,6.714 24.512,5.02 27.31,4.248 29.502,4.059 32,4 35.325,4 46.87,4.822 54.688,15.649 55.233,16.407 55.74,17.192 56.207,18 H 32 C 29.331,18.299 27.811,19.706 26.942,21.711 L 36.446,38.176 24.887,43.117"/>
 <path style="fill:#ffce41" d="M 43.375,40.281 32,58 C 32.075,58.002 32.149,58.008 32.223,58.008 46.411,57.788 59.998,48.564 60,32 59.987,27.081 58.679,22.253 56.207,18 H 32.032 C 32.001,18 36.476,19.996 38.364,21.086 43.188,23.872 43.692,33.821 43.703,37.848 L 44.512,38.317"/>
 <path style="opacity:0.2;fill:#ffffff" d="M 32,4 A 28,28 0 0 0 4,32 28,28 0 0 0 4.0352,32.5 28,28 0 0 1 32,5 28,28 0 0 1 59.982,32.252 28,28 0 0 0 60,32 28,28 0 0 0 32,4 Z"/>
 <circle style="opacity:0.2" cx="32" cy="33" r="14"/>
 <circle style="fill:#ffffff" cx="32" cy="32" r="14"/>
 <circle style="fill:#4587f3" cx="32" cy="32" r="11"/>
 <path style="fill:#4f4f4f" d="M 4.2891,36 A 28,28 0 0 0 32,60 28,28 0 0 0 59.711,36 Z"/>
 <path style="opacity:0.2" d="M 18,40.999 V 42.035 46.033 47.065 52.063 52.999 H 23.338 C 24.816,52.999 26,51.044 26,49.567 26,48.645 25.536,47.37 24.828,46.697 25.536,46.023 26,44.953 26,44.031 26,42.554 24.816,40.999 23.338,40.999 H 19.332 Z M 19.332,42.035 H 23.338 C 24.1,42.035 24.668,43.27 24.668,44.031 24.668,44.793 24.099,45.994 23.338,46.033 H 19.332 Z M 35.93,42.999 C 35.93,43.863 35.941,44.289 35.941,44.999 H 34.598 V 46.031 H 35.949 C 35.964,48.341 36.014,50.384 36.289,51.347 36.488,52.043 36.923,52.586 37.484,52.804 38.046,53.022 38.599,52.999 39.266,52.999 V 51.663 C 38.599,51.663 38.153,51.639 37.965,51.566 37.776,51.492 37.709,51.45 37.574,50.98 37.389,50.33 37.327,48.331 37.297,46.031 H 38.598 V 44.999 H 37.285 C 37.281,44.286 37.266,43.865 37.266,42.999 Z M 30.623,44.999 C 29.899,44.999 29.261,45.157 28.711,45.484 28.171,45.81 27.749,46.274 27.443,46.878 27.148,47.483 27,48.612 27,49.456 27,50.32 27.162,50.644 27.488,51.23 27.825,51.815 28.288,52.257 28.879,52.554 29.47,52.851 30.159,52.999 30.943,52.999 31.504,52.999 31.989,52.957 32.396,52.87 32.804,52.794 33.217,52.668 33.635,52.495 V 51.486 C 33.207,51.659 32.787,51.796 32.379,51.892 31.981,51.979 31.524,52.021 31.004,52.021 30.189,52.021 29.55,51.796 29.092,51.345 28.543,50.711 28.458,49.696 28.398,49.011 H 34 V 48.878 C 34,48.178 33.865,47.166 33.59,46.648 33.325,46.12 32.937,45.717 32.428,45.429 31.918,45.141 31.316,44.999 30.623,44.999 Z M 43.061,44.999 C 42.5,44.999 42.011,45.042 41.604,45.128 41.196,45.205 40.783,45.327 40.365,45.499 V 46.609 C 40.793,46.436 41.213,46.298 41.621,46.202 42.019,46.116 42.48,46.074 43,46.074 43.815,46.074 44.45,46.298 44.908,46.749 45.122,46.968 45.285,47.6 45.4,47.976 L 44.525,48.003 C 42.988,48.046 41.851,48.302 41.111,48.773 40.372,49.233 40,49.591 40,50.447 40,51.324 40.286,51.973 40.85,52.39 41.413,52.796 42.122,52.999 42.979,52.999 43.765,52.999 44.384,52.884 44.842,52.659 45.103,52.531 45.355,52.353 45.602,52.144 V 52.288 52.999 H 47 V 49.238 C 47,48.374 46.838,47.35 46.512,46.765 46.175,46.18 45.712,45.738 45.121,45.441 44.53,45.143 43.845,44.999 43.061,44.999 Z M 30.607,46.031 C 31.29,46.031 31.793,46.235 32.109,46.648 32.324,46.921 32.436,47.672 32.51,48.06 H 28.555 C 28.667,47.649 28.827,46.885 29.08,46.62 29.457,46.227 29.965,46.031 30.607,46.031 Z M 19.332,47.065 H 23.338 C 24.1,47.065 24.668,48.806 24.668,49.567 24.668,50.329 24.1,52.063 23.338,52.063 H 19.332 Z M 45.58,48.952 C 45.58,48.952 45.415,51.279 45.301,51.365 44.773,51.761 44.115,51.963 43.328,51.963 42.823,51.963 42.405,51.847 42.076,51.623 41.759,51.398 41.604,50.948 41.604,50.466 41.604,49.92 41.823,49.797 42.27,49.497 42.727,49.198 43.545,49.023 44.719,48.98 Z"/>
 <path style="fill:#ffffff" d="M 18,40 V 52 H 23.338 C 24.816,52 26,50.045 26,48.568 26,47.646 25.536,46.371 24.828,45.697 25.536,45.024 26,43.954 26,43.032 26,41.555 24.816,40 23.338,40 Z M 19.332,41.036 H 23.338 C 24.1,41.036 24.668,42.27 24.668,43.032 24.668,43.794 24.099,44.995 23.338,45.033 H 19.332 Z M 35.93,42 C 35.93,42.864 35.941,43.29 35.941,44 H 34.598 V 45.032 H 35.949 C 35.964,47.341 36.014,49.385 36.289,50.348 36.488,51.044 36.923,51.586 37.484,51.805 38.046,52.023 38.599,52 39.266,52 V 50.664 C 38.599,50.664 38.153,50.64 37.965,50.566 37.776,50.493 37.709,50.451 37.574,49.98 37.389,49.331 37.327,47.332 37.297,45.032 H 38.598 V 44 H 37.285 C 37.281,43.286 37.266,42.866 37.266,42 Z M 30.623,44 C 29.899,44 29.261,44.158 28.711,44.484 28.171,44.811 27.749,45.274 27.443,45.879 27.148,46.483 27,47.613 27,48.457 27,49.321 27.162,49.645 27.488,50.23 27.825,50.816 28.288,51.257 28.879,51.555 29.47,51.852 30.159,52 30.943,52 31.504,52 31.989,51.957 32.396,51.871 32.804,51.794 33.217,51.669 33.635,51.496 V 50.487 C 33.207,50.659 32.787,50.797 32.379,50.893 31.981,50.979 31.524,51.022 31.004,51.022 30.189,51.022 29.55,50.797 29.092,50.346 28.543,49.713 28.458,48.695 28.398,48.012 H 34 V 47.879 C 34,47.178 33.865,46.167 33.59,45.648 33.325,45.121 32.937,44.718 32.428,44.43 31.918,44.142 31.316,44 30.623,44 Z M 43.061,44 C 42.5,44 42.011,44.043 41.604,44.129 41.196,44.206 40.783,44.327 40.365,44.5 V 45.609 C 40.793,45.437 41.213,45.299 41.621,45.203 42.019,45.117 42.48,45.074 43,45.074 43.815,45.074 44.45,45.299 44.908,45.75 45.122,45.969 45.285,46.601 45.4,46.977 L 44.525,47.004 C 42.988,47.047 41.851,47.303 41.111,47.773 40.372,48.233 40,48.591 40,49.447 40,50.325 40.286,50.973 40.85,51.391 41.413,51.797 42.122,52 42.979,52 43.765,52 44.384,51.885 44.842,51.66 45.103,51.532 45.355,51.354 45.602,51.145 V 51.289 52 H 47 V 48.238 C 47,47.375 46.838,46.351 46.512,45.766 46.175,45.18 45.712,44.739 45.121,44.441 44.53,44.144 43.845,44 43.061,44 Z M 30.607,45.031 C 31.29,45.031 31.793,45.236 32.109,45.648 32.324,45.922 32.436,46.673 32.51,47.061 H 28.555 C 28.667,46.65 28.827,45.886 29.08,45.621 29.457,45.228 29.965,45.031 30.607,45.031 Z M 19.332,46.066 H 23.338 C 24.1,46.066 24.668,47.806 24.668,48.568 24.668,49.33 24.1,51.064 23.338,51.064 H 19.332 Z M 45.58,47.953 45.602,50.071 C 45.511,50.176 45.415,50.279 45.301,50.366 44.773,50.761 44.115,50.963 43.328,50.963 42.823,50.963 42.405,50.848 42.076,50.623 41.759,50.399 41.604,49.948 41.604,49.467 41.604,48.921 41.823,48.798 42.27,48.498 42.727,48.198 43.545,48.023 44.719,47.98 Z"/>
</svg>
